assets/flags-color/Vi.svg

<svg xmlns="http://www.w3.org/2000/svg" viewBox="0 0 512 512"><path fill="#f5f5f5" d="M0 0h512v512H0z"/><path fill="#4173cd" d="M399.057 290.006l3.222 11.303 11.197-33.276-31.056 16.374 11.672 1.373-37.273 43.798-.324-.928 29.77-61.643 5.971 10.124 2.435-35.024-25.918 23.683 11.642-1.618-29.771 61.642-.928.324 11.129-56.424 8.332 8.288-6.485-34.504-19.1 29.458 10.856-4.504-11.999 60.84-3.918 8.112-4.221 2.83-1.736 8.803-14.761 17.344 11.523-.927-2.091 10.6 4.076-2.733.394 4.891 7.002-8.228 6.438 9.602 4.407-22.345 5.815-6.832-.408-5.066 3.918-8.112z"/><path fill="#73af00" d="M130.919 256.928c1.266-5.692.481-11.024-1.687-14.309-3.356 2.056-6.327 6.553-7.593 12.244a23.807 23.807 0 00-.464 7.486l-6.97-10.391c2.838-2.314 5.281-6.277 6.39-11.261 1.266-5.692.481-11.024-1.687-14.309-3.356 2.056-6.327 6.553-7.593 12.244-.674 3.032-.732 5.932-.343 8.505l-4.712-7.024c.236-3.568-.859-7.907-3.489-12.041-3.129-4.92-7.455-8.135-11.311-8.925-.92 3.827.16 9.108 3.289 14.027 2.659 4.181 6.172 7.027 9.537 8.303l4.318 7.168c-2.166-1.443-4.818-2.621-7.85-3.295-5.692-1.266-11.024-.481-14.309 1.687 2.056 3.356 6.553 6.327 12.245 7.593 4.985 1.109 9.609.576 12.909-1.014l6.457 10.718a23.803 23.803 0 00-6.978-2.754c-5.692-1.266-11.024-.481-14.309 1.687 2.056 3.356 6.553 6.327 12.245 7.593 4.772 1.061 9.214.617 12.485-.811l5.946 9.869c-1.838-.992-3.884-1.843-6.202-2.358-5.692-1.266-11.024-.481-14.309 1.687 2.056 3.356 6.553 6.327 12.245 7.593 4.561 1.015 8.838.666 12.068-.61l5.734 9.517c-1.647-.806-3.42-1.513-5.414-1.957-5.692-1.266-11.024-.481-14.309 1.687 2.056 3.356 6.553 6.327 12.245 7.593 4.348.967 8.469.723 11.645-.407l5.222 8.668c-1.436-.635-2.964-1.189-4.639-1.561-5.692-1.266-11.024-.481-14.309 1.687 2.056 3.356 6.553 6.327 12.245 7.593 4.147.922 8.081.732 11.194-.265l16.588 27.533 7.046-4.482-17.906-26.695c2.222-2.396 4.062-5.88 4.984-10.026 1.266-5.692.481-11.024-1.687-14.309-3.356 2.056-6.327 6.553-7.593 12.244-.372 1.675-.518 3.292-.553 4.862l-5.636-8.403c2.369-2.398 4.337-6.027 5.304-10.375 1.266-5.692.481-11.024-1.687-14.309-3.356 2.056-6.327 6.553-7.593 12.244-.443 1.994-.554 3.899-.523 5.732l-6.189-9.226c2.525-2.385 4.653-6.111 5.668-10.672 1.266-5.692.481-11.024-1.687-14.309-3.356 2.056-6.327 6.553-7.593 12.244-.515 2.317-.613 4.531-.493 6.616l-6.417-9.567c2.679-2.352 4.963-6.188 6.025-10.959z"/><g fill="#ffe15a"><path d="M203.034 256l-8.828-52.966h-1.366c-8.014 0-13.672-7.851-11.138-15.453l.028-.085c2.025-6.075-1.192-12.653-7.231-14.784L53.293 129.933c-6.87-2.425-13.341 4.484-10.471 11.181l13.144 30.669a44.138 44.138 0 0018.671 20.936l33.623 19.213a66.474 66.474 0 0032.979 8.758h.003l3.016 6.032A52.964 52.964 0 00191.631 256h11.403zM308.966 256l8.828-52.966h1.366c8.014 0 13.672-7.851 11.138-15.453l-.028-.085c-2.025-6.075 1.192-12.653 7.231-14.784l121.158-42.762c6.889-2.432 13.377 4.497 10.499 11.212l-13.123 30.621a44.138 44.138 0 01-18.671 20.936l-33.623 19.213a66.474 66.474 0 01-32.979 8.758h-.003l-3.016 6.032A52.967 52.967 0 01320.369 256h-11.403zM291.31 194.207l-21.897-51.093a17.655 17.655 0 00-16.227-10.7h-6.013l-8.828 8.828h-8.828l-8.828 8.828h12.319c3.123 0 5.229 3.193 3.999 6.064l-16.318 38.074h70.621v-.001zM229.517 282.483L211.862 256l-16.168 16.168a61.8 61.8 0 00-14.928 24.154l-4.215 12.644-8.828 8.828H156.25a10 10 0 00-8.945 5.529l-2.49 4.979c-1.642 3.284.746 7.148 4.417 7.148h18.492l5.885-11.77 28.144-14.072a8.814 8.814 0 002.294-1.654l25.47-25.471zM282.483 282.483L300.138 256l16.168 16.168a61.8 61.8 0 0114.928 24.154l4.215 12.644 8.828 8.828h11.474a10 10 0 018.945 5.529l2.49 4.979c1.642 3.284-.746 7.148-4.417 7.148h-18.492l-5.885-11.77-28.144-14.072a8.814 8.814 0 01-2.294-1.654l-25.471-25.471zM229.517 291.31l-21.454 35.757a11.413 11.413 0 002.48 14.639l32.579 27.15a20.116 20.116 0 0025.755 0l32.579-27.15a11.413 11.413 0 002.48-14.639l-21.454-35.757h-52.965z"/></g><path fill="#f5f5f5" d="M256 185.379s-26.483 8.828-61.793 0v35.31c0 17.655 8.828 70.621 61.793 88.276 52.966-17.655 61.793-70.621 61.793-88.276v-35.31c-35.31 8.828-61.793 0-61.793 0z"/><path fill="#41479b" d="M256 185.379s-26.483 8.828-61.793 0v35.31h123.586v-35.31c-35.31 8.828-61.793 0-61.793 0z"/><g fill="#ff4b55"><path d="M212.664 277.163V220.69h-9.63v39.294c2.502 5.748 5.646 11.567 9.63 17.179zM231.925 220.69h-9.63v67.759a82.648 82.648 0 009.63 8.199V220.69zM299.336 277.163c3.984-5.612 7.129-11.432 9.63-17.179V220.69h-9.63v56.473zM251.185 220.69h-9.63v81.932c3.016 1.626 6.23 3.105 9.63 4.449V220.69zM289.705 220.69h-9.63v75.957a82.648 82.648 0 009.63-8.199V220.69zM270.445 302.622V220.69h-9.63v86.381c3.4-1.344 6.614-2.823 9.63-4.449z"/></g><path fill="#73af00" d="M163.185 324.979l-6.27 3.858 10.533 17.483 7.046-4.482z"/><g fill="#4173cd"><path d="M358.642 337.697l-5.539-11.076h-10.147l-.527 2.671-3.918 8.112-4.221 2.83-1.736 8.803-14.761 17.344 11.523-.927-2.091 10.6 4.076-2.733.394 4.891 7.003-8.228 6.437 9.602 4.407-22.345 5.815-6.833-.408-5.065zM84.493 220.69h-22.7l2.037 6.111-13.387 46.854-13.387-46.854 2.038-6.111h-22.7l6.111 8.148 18.626 65.189-2.037 6.111h22.699l-2.037-6.111 18.625-65.189zM469.123 226.365l3.783-5.675h-22.699l3.783 5.675v68.098l-3.783 5.675h22.699l-3.783-5.675z"/></g></svg>

<svg xmlns="http://www.w3.org/2000/svg" x="0" y="0" enable-background="new 0 0 512 512" version="1.1" viewBox="0 0 512 512" xml:space="preserve"><path fill="#F5F5F5" d="M0 0H512V512H0z"/><path fill="#4173CD" d="M399.057 290.006 402.279 301.309 413.476 268.033 382.42 284.407 394.092 285.78 356.819 329.578 356.495 328.65 386.265 267.007 392.236 277.131 394.671 242.107 368.753 265.79 380.395 264.172 350.624 325.814 349.696 326.138 360.825 269.714 369.157 278.002 362.672 243.498 343.572 272.956 354.428 268.452 342.429 329.292 338.511 337.404 334.29 340.234 332.554 349.037 317.793 366.381 329.316 365.454 327.225 376.054 331.301 373.321 331.695 378.212 338.697 369.984 345.135 379.586 349.542 357.241 355.357 350.409 354.949 345.343 358.867 337.231z"/><path fill="#73AF00" d="M130.919 256.928c1.266-5.692.481-11.024-1.687-14.309-3.356 2.056-6.327 6.553-7.593 12.244a23.807 23.807 0 0 0-.464 7.486l-6.97-10.391c2.838-2.314 5.281-6.277 6.39-11.261 1.266-5.692.481-11.024-1.687-14.309-3.356 2.056-6.327 6.553-7.593 12.244-.674 3.032-.732 5.932-.343 8.505l-4.712-7.024c.236-3.568-.859-7.907-3.489-12.041-3.129-4.92-7.455-8.135-11.311-8.925-.92 3.827.16 9.108 3.289 14.027 2.659 4.181 6.172 7.027 9.537 8.303l4.318 7.168c-2.166-1.443-4.818-2.621-7.85-3.295-5.692-1.266-11.024-.481-14.309 1.687 2.056 3.356 6.553 6.327 12.245 7.593 4.985 1.109 9.609.576 12.909-1.014l6.457 10.718a23.803 23.803 0 0 0-6.978-2.754c-5.692-1.266-11.024-.481-14.309 1.687 2.056 3.356 6.553 6.327 12.245 7.593 4.772 1.061 9.214.617 12.485-.811l5.946 9.869c-1.838-.992-3.884-1.843-6.202-2.358-5.692-1.266-11.024-.481-14.309 1.687 2.056 3.356 6.553 6.327 12.245 7.593 4.561 1.015 8.838.666 12.068-.61l5.734 9.517c-1.647-.806-3.42-1.513-5.414-1.957-5.692-1.266-11.024-.481-14.309 1.687 2.056 3.356 6.553 6.327 12.245 7.593 4.348.967 8.469.723 11.645-.407l5.222 8.668c-1.436-.635-2.964-1.189-4.639-1.561-5.692-1.266-11.024-.481-14.309 1.687 2.056 3.356 6.553 6.327 12.245 7.593 4.147.922 8.081.732 11.194-.265l16.588 27.533 7.046-4.482-17.906-26.695c2.222-2.396 4.062-5.88 4.984-10.026 1.266-5.692.481-11.024-1.687-14.309-3.356 2.056-6.327 6.553-7.593 12.244-.372 1.675-.518 3.292-.553 4.862l-5.636-8.403c2.369-2.398 4.337-6.027 5.304-10.375 1.266-5.692.481-11.024-1.687-14.309-3.356 2.056-6.327 6.553-7.593 12.244-.443 1.994-.554 3.899-.523 5.732l-6.189-9.226c2.525-2.385 4.653-6.111 5.668-10.672 1.266-5.692.481-11.024-1.687-14.309-3.356 2.056-6.327 6.553-7.593 12.244-.515 2.317-.613 4.531-.493 6.616l-6.417-9.567c2.679-2.352 4.963-6.188 6.025-10.959z"/><g fill="#FFE15A"><path d="m203.034 256-8.828-52.966h-1.366c-8.014 0-13.672-7.851-11.138-15.453l.028-.085c2.025-6.075-1.192-12.653-7.231-14.784L53.293 129.933c-6.87-2.425-13.341 4.484-10.471 11.181l13.144 30.669a44.138 44.138 0 0 0 18.671 20.936l33.623 19.213a66.474 66.474 0 0 0 32.979 8.758h.003l3.016 6.032A52.964 52.964 0 0 0 191.631 256h11.403zM308.966 256l8.828-52.966h1.366c8.014 0 13.672-7.851 11.138-15.453l-.028-.085c-2.025-6.075 1.192-12.653 7.231-14.784l121.158-42.762c6.889-2.432 13.377 4.497 10.499 11.212l-13.123 30.621a44.138 44.138 0 0 1-18.671 20.936l-33.623 19.213a66.474 66.474 0 0 1-32.979 8.758h-.003l-3.016 6.032A52.967 52.967 0 0 1 320.369 256h-11.403zM291.31 194.207l-21.897-51.093a17.655 17.655 0 0 0-16.227-10.7h-6.013l-8.828 8.828h-8.828l-8.828 8.828h12.319c3.123 0 5.229 3.193 3.999 6.064l-16.318 38.074h70.621v-.001zM229.517 282.483 211.862 256l-16.168 16.168a61.8 61.8 0 0 0-14.928 24.154l-4.215 12.644-8.828 8.828H156.25a10 10 0 0 0-8.945 5.529l-2.49 4.979c-1.642 3.284.746 7.148 4.417 7.148h18.492l5.885-11.77 28.144-14.072a8.814 8.814 0 0 0 2.294-1.654l25.47-25.471zM282.483 282.483 300.138 256l16.168 16.168a61.8 61.8 0 0 1 14.928 24.154l4.215 12.644 8.828 8.828h11.474a10 10 0 0 1 8.945 5.529l2.49 4.979c1.642 3.284-.746 7.148-4.417 7.148h-18.492l-5.885-11.77-28.144-14.072a8.814 8.814 0 0 1-2.294-1.654l-25.471-25.471zM229.517 291.31l-21.454 35.757a11.413 11.413 0 0 0 2.48 14.639l32.579 27.15a20.116 20.116 0 0 0 25.755 0l32.579-27.15a11.413 11.413 0 0 0 2.48-14.639l-21.454-35.757h-52.965z"/></g><path fill="#F5F5F5" d="M256 185.379s-26.483 8.828-61.793 0v35.31c0 17.655 8.828 70.621 61.793 88.276 52.966-17.655 61.793-70.621 61.793-88.276v-35.31c-35.31 8.828-61.793 0-61.793 0z"/><path fill="#41479B" d="M256 185.379s-26.483 8.828-61.793 0v35.31h123.586v-35.31c-35.31 8.828-61.793 0-61.793 0z"/><g fill="#FF4B55"><path d="M212.664 277.163V220.69h-9.63v39.294c2.502 5.748 5.646 11.567 9.63 17.179zM231.925 220.69h-9.63v67.759a82.648 82.648 0 0 0 9.63 8.199V220.69zM299.336 277.163c3.984-5.612 7.129-11.432 9.63-17.179V220.69h-9.63v56.473zM251.185 220.69h-9.63v81.932c3.016 1.626 6.23 3.105 9.63 4.449V220.69zM289.705 220.69h-9.63v75.957a82.648 82.648 0 0 0 9.63-8.199V220.69zM270.445 302.622V220.69h-9.63v86.381c3.4-1.344 6.614-2.823 9.63-4.449z"/></g><path fill="#73AF00" d="M163.185 324.979 156.915 328.837 167.448 346.32 174.494 341.838z"/><g fill="#4173CD"><path d="M358.642 337.697 353.103 326.621 342.956 326.621 342.429 329.292 338.511 337.404 334.29 340.234 332.554 349.037 317.793 366.381 329.316 365.454 327.225 376.054 331.301 373.321 331.695 378.212 338.698 369.984 345.135 379.586 349.542 357.241 355.357 350.408 354.949 345.343z"/><path d="M84.493 220.69 61.793 220.69 63.83 226.801 50.443 273.655 37.056 226.801 39.094 220.69 16.394 220.69 22.505 228.838 41.131 294.027 39.094 300.138 61.793 300.138 59.756 294.027 78.381 228.838z"/><path d="M469.123 226.365 472.906 220.69 469.123 220.69 453.99 220.69 450.207 220.69 453.99 226.365 453.99 294.463 450.207 300.138 453.99 300.138 469.123 300.138 472.906 300.138 469.123 294.463z"/></g></svg>
